**harmony	**harte	**kern	**silbe	**rhyme	**timestamp	**phrase
*M4/4	*M4/4	*ICvox	*	*	*	*
*	*	*VRlead	*	*	*	*
*	*	*Hstimme	*	*	*	*
*d:	*d:	*d:	*	*	*d:	*d:
*	*	*M4/4	*	*	*	*
*	*	*clefF4	*	*	*	*
1r;	1r	r;	.	.	0	.
=1	=1	=1	=1	=1	=1	=1
*>Letter>A	*>Letter>A	*>Letter>A	*>Letter>A	*>Letter>A	*>Letter>A	*>Letter>A
*>Label>Intro	*>Label>Intro	*>Label>Intro	*>Label>Intro	*>Label>Intro	*>Label>Intro	*>Label>Intro
1Dm	D:min	1r	.	.	0.325	newline
=2	=2	=2	=2	=2	=2	=2
1CMm	C:7	1r	.	.	1.985	.
=3	=3	=3	=3	=3	=3	=3
1B-Mm	B-:7	1r	.	.	3.645	.
=4	=4	=4	=4	=4	=4	=4
1AMm	A:7	1r	.	.	5.305	.
=5	=5	=5	=5	=5	=5	=5
*>Letter>B	*>Letter>B	*>Letter>B	*>Letter>B	*>Letter>B	*>Letter>B	*>Letter>B
*>Label>Verse	*>Label>Verse	*>Label>Verse	*>Label>Verse	*>Label>Verse	*>Label>Verse	*>Label>Verse
1Dm	D:min	4.A	Time	.	6.966	newline
.	.	[8A	time	.	.	.
.	.	4A]	_	.	.	.
.	.	[4A	time	.	.	.
=6	=6	=6	=6	=6	=6	=6
1Dm	D:min	8A]	_	.	8.221	.
.	.	8r	.	.	.	.
.	.	8r	.	.	.	.
.	.	4A	See	.	.	.
.	.	8A	what's	.	.	.
.	.	8r	.	.	.	.
.	.	8F	be-	.	.	.
=7	=7	=7	=7	=7	=7	=7
1CM	C:maj	8G	-come	.	9.477	.
.	.	4G	of	.	.	.
.	.	[8A	me	A	.	.
.	.	4A]	_	.	.	.
.	.	4r	.	.	.	.
=8	=8	=8	=8	=8	=8	=8
1CM	C:maj	2r	.	.	10.732	.
.	.	4r	.	.	.	.
.	.	8G	While	.	.	.
.	.	[8A	I	.	.	.
=9	=9	=9	=9	=9	=9	=9
1B-M	B-:maj	8A]	_	.	11.988	.
.	.	4B-	looked	.	.	.
.	.	[8B-	a-	.	.	.
.	.	8B-]	_	.	.	.
.	.	4.B-	-round	.	.	.
=10	=10	=10	=10	=10	=10	=10
1B-M	B-:maj	4r	.	.	13.243	.
.	.	8B-	for	.	.	.
.	.	[8B-	my	.	.	.
.	.	8B-]	_	.	.	.
.	.	4A	po-	.	.	.
.	.	8G	-ssi-	.	.	.
=11	=11	=11	=11	=11	=11	=11
1FM	F:maj/5	8c	-bi-	.	14.499	.
.	.	4c	-li-	.	.	.
.	.	4.c	-ties	A	.	.
.	.	4r	.	.	.	.
=12	=12	=12	=12	=12	=12	=12
1FM	F:maj/5	2r	.	.	15.754	.
.	.	6A	I	.	.	.
.	.	6B-	was	.	.	.
.	.	6A	so	.	.	.
=13	=13	=13	=13	=13	=13	=13
1CM	C:maj	8A	hard	.	17.01	newline
.	.	4G	_	.	.	.
.	.	8F	to	.	.	.
.	.	2E	please	A	.	.
=14	=14	=14	=14	=14	=14	=14
1CM	C:maj	2r	.	.	18.677	.
.	.	8r	.	.	.	.
.	.	8E	But	.	.	.
.	.	16E	look	.	.	.
.	.	16E	a-	.	.	.
.	.	[8F	-round	B	.	.
=15	=15	=15	=15	=15	=15	=15
*>Letter>C	*>Letter>C	*>Letter>C	*>Letter>C	*>Letter>C	*>Letter>C	*>Letter>C
*>Label>Chorus	*>Label>Chorus	*>Label>Chorus	*>Label>Chorus	*>Label>Chorus	*>Label>Chorus	*>Label>Chorus
1Dm	D:min	4F]	_	.	23.681	newline
.	.	4r	.	.	.	.
.	.	8r	.	.	.	.
.	.	8A	Leaves	.	.	.
.	.	8F	are	.	.	.
.	.	[8G	brown	B	.	.
=16	=16	=16	=16	=16	=16	=16
1CMm	C:7	4G]	_	.	25.345	.
.	.	4r	.	.	.	.
.	.	8r	.	.	.	.
.	.	8G	and	.	.	.
.	.	8G	the	.	.	.
.	.	[8B-	sky	.	.	.
=17	=17	=17	=17	=17	=17	=17
1B-Mm	B-:7	8B-]	_	.	27.009	.
.	.	8r	.	.	.	.
.	.	4r	.	.	.	.
.	.	8r	.	.	.	.
.	.	8B-	is	.	.	.
.	.	8B-	a	.	.	.
.	.	[8c#	ha-	C	.	.
=18	=18	=18	=18	=18	=18	=18
1AMm	A:7	8c#]	_	.	28.673	.
.	.	4A	-zy	.	.	.
.	.	4.c#	shade	C	.	.
.	.	8c#	of	.	.	.
.	.	[8f	win-	.	.	.
=19	=19	=19	=19	=19	=19	=19
*>Letter>B	*>Letter>B	*>Letter>B	*>Letter>B	*>Letter>B	*>Letter>B	*>Letter>B
*>Label>Verse	*>Label>Verse	*>Label>Verse	*>Label>Verse	*>Label>Verse	*>Label>Verse	*>Label>Verse
1Dm	D:min	8f]	_	.	30.338	newline
.	.	8d	-ter	.	.	.
.	.	4r	.	.	.	.
.	.	2r	.	.	.	.
=20	=20	=20	=20	=20	=20	=20
1Dm	D:min	6r	.	.	32.025	.
.	.	6A	Hear	.	.	.
.	.	6A	the	.	.	.
.	.	6A	Salv-	.	.	.
.	.	6G	-a-	.	.	.
.	.	6F	-tion	.	.	.
=21	=21	=21	=21	=21	=21	=21
1CM	C:maj	4G	Ar-	.	33.713	.
.	.	8F	-my	.	.	.
.	.	4.E	band	D	.	.
.	.	4r	.	.	.	.
=22	=22	=22	=22	=22	=22	=22
1CM	C:maj	1r	.	.	35.401	.
=23	=23	=23	=23	=23	=23	=23
1B-M	B-:maj	4B-	Down	.	37.089	newline
.	.	8.B-	by	.	.	.
.	.	16F	the	.	.	.
.	.	16B-	ri-	.	.	.
.	.	16B-	-ver-	.	.	.
.	.	4B-	-side	E	.	.
.	.	8B-	is	.	.	.
=24	=24	=24	=24	=24	=24	=24
1B-M	B-:maj	8B-	bound	.	38.792	.
.	.	8B-	to	.	.	.
.	.	8B-	be	.	.	.
.	.	8F	a	.	.	.
.	.	16B-	be-	.	.	.
.	.	16B-	-tter	.	.	.
.	.	4B-	ride	E	.	.
.	.	8B-	than	.	.	.
=25	=25	=25	=25	=25	=25	=25
1FMM	F:maj7	6c	what	.	40.496	.
.	.	6c	you've	.	.	.
.	.	6c	got	.	.	.
.	.	4c	planned	D	.	.
.	.	4r	.	.	.	.
=26	=26	=26	=26	=26	=26	=26
1FMM	F:maj7	2r	.	.	42.2	.
.	.	6A	Ca-	.	.	.
.	.	6B-	-rry	.	.	.
.	.	6A	your	.	.	.
=27	=27	=27	=27	=27	=27	=27
1CM	C:maj	6A	cup	.	43.904	newline
.	.	6G	in	.	.	.
.	.	6F	your	.	.	.
.	.	4E	hand	D	.	.
.	.	4r	.	.	.	.
=28	=28	=28	=28	=28	=28	=28
1CM	C:maj	2r	.	.	45.638	.
.	.	8r	.	.	.	.
.	.	8F	And	.	.	.
.	.	16E	look	.	.	.
.	.	16E	a-	.	.	.
.	.	[8F	-round	B	.	.
=29	=29	=29	=29	=29	=29	=29
*>Letter>C2	*>Letter>C2	*>Letter>C2	*>Letter>C2	*>Letter>C2	*>Letter>C2	*>Letter>C2
*>Label>Chorus	*>Label>Chorus	*>Label>Chorus	*>Label>Chorus	*>Label>Chorus	*>Label>Chorus	*>Label>Chorus
1Dm	D:min	8F]	_	.	47.373	newline
.	.	8D	ya	.	.	.
.	.	4r	.	.	.	.
.	.	8r	.	.	.	.
.	.	8A	Leaves	.	.	.
.	.	8F	are	.	.	.
.	.	[8G	brown	B	.	.
=30	=30	=30	=30	=30	=30	=30
1CMm	C:7	8G]	_	.	49.079	.
.	.	8E	now	.	.	.
.	.	4r	.	.	.	.
.	.	8r	.	.	.	.
.	.	8G	and	.	.	.
.	.	8G	the	.	.	.
.	.	[8B-	sky	.	.	.
=31	=31	=31	=31	=31	=31	=31
1B-Mm	B-:7	4B-]	_	.	50.784	.
.	.	4r	.	.	.	.
.	.	8r	.	.	.	.
.	.	8B-	is	.	.	.
.	.	8B-	a	.	.	.
.	.	[8c#	ha-	C	.	.
=32	=32	=32	=32	=32	=32	=32
1AMm	A:7	8c#]	_	.	52.49	.
.	.	4A	-zy	.	.	.
.	.	4.c#	shade	C	.	.
.	.	8c#	of	.	.	.
.	.	[8f	win-	.	.	.
=33	=33	=33	=33	=33	=33	=33
*>Letter>B	*>Letter>B	*>Letter>B	*>Letter>B	*>Letter>B	*>Letter>B	*>Letter>B
*>Label>Verse	*>Label>Verse	*>Label>Verse	*>Label>Verse	*>Label>Verse	*>Label>Verse	*>Label>Verse
1Dmm	D:min7	8f]	_	.	54.196	newline
.	.	8d	-ter	.	.	.
.	.	4r	.	.	.	.
.	.	2r	.	.	.	.
=34	=34	=34	=34	=34	=34	=34
1Dmm	D:min7	4r	.	.	55.882	.
.	.	8f	Hang	.	.	.
.	.	[8f	on	.	.	.
.	.	8f]	_	.	.	.
.	.	8e	to	.	.	.
.	.	8d	your	.	.	.
.	.	[8e	hopes	.	.	.
=35	=35	=35	=35	=35	=35	=35
1CM	C:maj(9)	8e]	_	.	57.568	.
.	.	4c	my	.	.	.
.	.	[8G	friend	F	.	.
.	.	4G]	_	.	.	.
.	.	4r	.	.	.	.
=36	=36	=36	=36	=36	=36	=36
1CM	C:maj(9)	1r	.	.	59.253	.
=37	=37	=37	=37	=37	=37	=37
1B-M	B-:maj(9)	8B-	That's	.	60.939	newline
.	.	16F	an	.	.	.
.	.	8B-	ea-	.	.	.
.	.	16F	-sy	.	.	.
.	.	[8B-	thing	.	.	.
.	.	16B-]	_	.	.	.
.	.	8F	to	.	.	.
.	.	8.B-	say	C	.	.
.	.	16F	but	.	.	.
.	.	[16B-	if	.	.	.
=38	=38	=38	=38	=38	=38	=38
1B-M	B-:maj(9)	16B-]	_	.	62.671	.
.	.	8.B-	you're	.	.	.
.	.	8B-	hopes	.	.	.
.	.	8F	should	.	.	.
.	.	8B-	pass	.	.	.
.	.	8B-	a-	.	.	.
.	.	4B-	-way	C	.	.
=39	=39	=39	=39	=39	=39	=39
1FMM	F:maj7	6c	Sim-	.	64.402	.
.	.	6c	-ply	.	.	.
.	.	6c	pre-	.	.	.
.	.	4c	-tend	F	.	.
.	.	4r	.	.	.	.
=40	=40	=40	=40	=40	=40	=40
1FMM	F:maj7	2r	.	.	66.133	.
.	.	6A	that	.	.	.
.	.	6B-	you	.	.	.
.	.	6A	can	.	.	.
=41	=41	=41	=41	=41	=41	=41
1CM	C:maj	6A	build	.	67.864	newline
.	.	6G	them	.	.	.
.	.	6F	a-	.	.	.
.	.	4E	-gain	F	.	.
.	.	4r	.	.	.	.
=42	=42	=42	=42	=42	=42	=42
1CM	C:maj	2r	.	.	69.573	.
.	.	8r	.	.	.	.
.	.	8F	Look	.	.	.
.	.	8E	a-	.	.	.
.	.	[8F	-round	B	.	.
=43	=43	=43	=43	=43	=43	=43
*>Letter>C3	*>Letter>C3	*>Letter>C3	*>Letter>C3	*>Letter>C3	*>Letter>C3	*>Letter>C3
*>Label>Chorus	*>Label>Chorus	*>Label>Chorus	*>Label>Chorus	*>Label>Chorus	*>Label>Chorus	*>Label>Chorus
1Dm	D:min	4F]	_	.	71.282	newline
.	.	4r	.	.	.	.
.	.	4r	.	.	.	.
.	.	8A	Grass	.	.	.
.	.	8F	is	.	.	.
=44	=44	=44	=44	=44	=44	=44
1CMm	C:7	2G	high	G	72.982	.
.	.	4r	.	.	.	.
.	.	8G	Fields	.	.	.
.	.	8G	are	.	.	.
=45	=45	=45	=45	=45	=45	=45
1B-Mm	B-:7	4B-	ripe	G	74.683	.
.	.	4r	.	.	.	.
.	.	8r	.	.	.	.
.	.	8B-	It's	.	.	.
.	.	8B-	the	.	.	.
.	.	[8c#	spring	.	.	.
=46	=46	=46	=46	=46	=46	=46
1AMm	A:7	8c#]	_	.	76.383	.
.	.	4A	time	G	.	.
.	.	4c#	of	.	.	.
.	.	8f	my	.	.	.
.	.	8e	_	.	.	.
.	.	[8d	life	G	.	.
=47	=47	=47	=47	=47	=47	=47
*>Letter>B	*>Letter>B	*>Letter>B	*>Letter>B	*>Letter>B	*>Letter>B	*>Letter>B
*>Label>Verse	*>Label>Verse	*>Label>Verse	*>Label>Verse	*>Label>Verse	*>Label>Verse	*>Label>Verse
1Dm	D:min	8d]	_	.	78.083	newline
.	.	8r	.	.	.	.
.	.	4r	.	.	.	.
.	.	2r	.	.	.	.
=48	=48	=48	=48	=48	=48	=48
1Dm	D:min	1r	.	.	79.788	.
=49	=49	=49	=49	=49	=49	=49
1Gm	G:min	[1f	Ooh	.	81.493	.
=50	=50	=50	=50	=50	=50	=50
1Gm	G:min	6f]	_	.	83.198	.
.	.	6d	sea-	A	.	.
.	.	6d	-sons	.	.	.
.	.	4d	change	.	.	.
.	.	8c	with	.	.	.
.	.	[8B-	the	.	.	.
=51	=51	=51	=51	=51	=51	=51
1FM	F:maj	4B-]	_	.	84.903	newline
.	.	8A	scen-	.	.	.
.	.	8B-	-er-	.	.	.
.	.	2c	-y	A	.	.
=52	=52	=52	=52	=52	=52	=52
1FM	F:maj	6r	.	.	86.607	.
.	.	6c	Weav-	A	.	.
.	.	6c	-ing	.	.	.
.	.	4d	time	.	.	.
.	.	8A	in	.	.	.
.	.	[8G	a	.	.	.
=53	=53	=53	=53	=53	=53	=53
1CM	C:maj	6G]	_	.	88.311	.
.	.	6F	ta-	.	.	.
.	.	6G	-pes-	.	.	.
.	.	4A	-try	A	.	.
.	.	4r	.	.	.	.
=54	=54	=54	=54	=54	=54	=54
1CM	C:maj	6r	.	.	90.015	.
.	.	6B-	Won't	.	.	.
.	.	6B-	you	.	.	.
.	.	6B-	stop	.	.	.
.	.	6A	and	.	.	.
.	.	6G	re-	a	.	.
=55	=55	=55	=55	=55	=55	=55
1Dm	D:min	4.F	-mem-	.	91.718	newline
.	.	[8G	-ber	.	.	.
.	.	4G]	_	.	.	.
.	.	4A	me	A	.	.
=56	=56	=56	=56	=56	=56	=56
1Dm	D:min	1r	.	.	93.424	.
=57	=57	=57	=57	=57	=57	=57
1CM	C:maj	4r	.	.	95.129	.
.	.	8r	.	.	.	.
.	.	8G	At	.	.	.
.	.	8B-	a-	.	.	.
.	.	8A	-ny	.	.	.
.	.	8F	con-	.	.	.
.	.	[8G	-ven-	.	.	.
=58	=58	=58	=58	=58	=58	=58
1CM	C:maj	8G]	_	.	96.835	.
.	.	4E	-ient	.	.	.
.	.	[8C	time	G	.	.
.	.	4C]	_	.	.	.
.	.	4r	.	.	.	.
=59	=59	=59	=59	=59	=59	=59
1B-M	B-:maj	16B-	Fu-	.	98.54	newline
.	.	16F	-nny	.	.	.
.	.	4B-	how	.	.	.
.	.	8B-	my	.	.	.
.	.	16B-	me-	.	.	.
.	.	16B-	-mo-	.	.	.
.	.	8F	-ry	.	.	.
.	.	8B-	skips	H	.	.
.	.	8B-	while	.	.	.
=60	=60	=60	=60	=60	=60	=60
1B-M	B-:maj	16B-	look-	.	100.274	.
.	.	8F	-ing	.	.	.
.	.	8B-	ov-	.	.	.
.	.	16F	-er	.	.	.
.	.	4B-	man-	.	.	.
.	.	8F	-u-	.	.	.
.	.	8B-	-scripts	H	.	.
.	.	8B-	of	.	.	.
=61	=61	=61	=61	=61	=61	=61
1FMM	F:maj7	6c	un-	.	102.008	.
.	.	6c	-pub-	.	.	.
.	.	6c	-lished	.	.	.
.	.	4c	rhyme	G	.	.
.	.	4r	.	.	.	.
=62	=62	=62	=62	=62	=62	=62
1FMM	F:maj7	2r	.	.	103.741	.
.	.	6A	Drink-	.	.	.
.	.	6B-	-ing	.	.	.
.	.	6A	my	.	.	.
=63	=63	=63	=63	=63	=63	=63
1CM	C:maj	6A	vod-	.	105.475	newline
.	.	6G	-ka	.	.	.
.	.	6F	and	.	.	.
.	.	4E	lime	G	.	.
.	.	4r	.	.	.	.
=64	=64	=64	=64	=64	=64	=64
1CM	C:maj	2r	.	.	107.193	.
.	.	8r	.	.	.	.
.	.	8E	I	.	.	.
.	.	16E	look	.	.	.
.	.	16E	a-	.	.	.
.	.	[8F	-round	B	.	.
=65	=65	=65	=65	=65	=65	=65
*>Letter>A	*>Letter>A	*>Letter>A	*>Letter>A	*>Letter>A	*>Letter>A	*>Letter>A
*>Label>Chorus	*>Label>Chorus	*>Label>Chorus	*>Label>Chorus	*>Label>Chorus	*>Label>Chorus	*>Label>Chorus
1Dm	D:min	4F]	_	.	108.91	newline
.	.	4r	.	.	.	.
.	.	8r	.	.	.	.
.	.	8A	Leaves	.	.	.
.	.	8F	are	.	.	.
.	.	[8G	brown	B	.	.
=66	=66	=66	=66	=66	=66	=66
1CMm	C:7	8G]	_	.	110.621	.
.	.	16E	now	.	.	.
.	.	16D	_	.	.	.
.	.	8C	_	.	.	.
.	.	8r	.	.	.	.
.	.	8r	.	.	.	.
.	.	8G	and	.	.	.
.	.	8G	the	.	.	.
.	.	[8B-	sky	.	.	.
=67	=67	=67	=67	=67	=67	=67
1B-Mm	B-:7	4B-]	_	.	112.332	.
.	.	4r	.	.	.	.
.	.	8r	.	.	.	.
.	.	8B-	is	.	.	.
.	.	8B-	a	.	.	.
.	.	[8c#	ha-	C	.	.
=68	=68	=68	=68	=68	=68	=68
1AMm	A:7	8c#]	_	.	114.043	.
.	.	4A	-zy	.	.	.
.	.	4.c#	shade	C	.	.
.	.	8c#	of	.	.	.
.	.	[8f	win-	.	.	.
=69	=69	=69	=69	=69	=69	=69
1Dm	D:min	8f]	_	.	115.754	newline
.	.	8d	-ter	.	.	.
.	.	4r	.	.	.	.
.	.	8r	.	.	.	.
.	.	8f	look	.	.	.
.	.	8e	a-	.	.	.
.	.	8d	-round	B	.	.
=70	=70	=70	=70	=70	=70	=70
1CMm	C:7	4c	_	.	117.445	.
.	.	4r	.	.	.	.
.	.	8r	.	.	.	.
.	.	8d	leaves	.	.	.
.	.	4c	are	.	.	.
=71	=71	=71	=71	=71	=71	=71
1B-Mm	B-:7	4B-	brown	B	119.136	.
.	.	4r	.	.	.	.
.	.	8r	.	.	.	.
.	.	8B-	there's	.	.	.
.	.	8B-	a	.	.	.
.	.	[8A	patch	.	.	.
=72	=72	=72	=72	=72	=72	=72
1AMm	A:7	8A]	_	.	120.827	.
.	.	4G	of	.	.	.
.	.	[8F	snow	.	.	.
.	.	8F]	_	.	.	.
.	.	8F	on	.	.	.
.	.	8G	the	.	.	.
.	.	[8A	ground	B	.	.
=73	=73	=73	=73	=73	=73	=73
1Dm	D:min	4A]	_	.	122.518	newline
.	.	4r	.	.	.	.
.	.	8r	.	.	.	.
.	.	8f	Look	.	.	.
.	.	8e	a-	.	.	.
.	.	8d	-round	B	.	.
=74	=74	=74	=74	=74	=74	=74
1CMm	C:7	4c	_	.	124.204	.
.	.	4r	.	.	.	.
.	.	6r	.	.	.	.
.	.	6d	leaves	.	.	.
.	.	6c	are	.	.	.
=75	=75	=75	=75	=75	=75	=75
1B-Mm	B-:7	4B-	brown	B	125.89	.
.	.	4r	.	.	.	.
.	.	8r	.	.	.	.
.	.	8B-	there's	.	.	.
.	.	8B-	a	.	.	.
.	.	[8A	patch	.	.	.
=76	=76	=76	=76	=76	=76	=76
1AMm	A:7	8A]	_	.	127.575	.
.	.	4G	of	.	.	.
.	.	[8F	snow	.	.	.
.	.	8F]	_	.	.	.
.	.	8F	on	.	.	.
.	.	8E	the	.	.	.
.	.	[8D	ground	B	.	.
=77	=77	=77	=77	=77	=77	=77
1Dm	D:min	4D]	_	.	129.261	newline
.	.	4r	.	.	.	.
.	.	8r	.	.	.	.
.	.	8f	Look	.	.	.
.	.	8e	a-	.	.	.
.	.	8d	-round	B	.	.
=78	=78	=78	=78	=78	=78	=78
1CMm	C:7	4c	_	.	130.955	.
.	.	4r	.	.	.	.
.	.	6r	.	.	.	.
.	.	6d	leaves	.	.	.
.	.	6c	are	.	.	.
=79	=79	=79	=79	=79	=79	=79
1B-Mm	B-:7	4B-	brown	B	132.65	.
.	.	4r	.	.	.	.
.	.	8r	.	.	.	.
.	.	8B-	There's	.	.	.
.	.	8B-	a	.	.	.
.	.	[8A	patch	.	.	.
=80	=80	=80	=80	=80	=80	=80
1AMm	A:7	8A]	_	.	134.344	.
.	.	4G	of	.	.	.
.	.	[8F	snow	.	.	.
.	.	8F]	_	.	.	.
.	.	8F	on	.	.	.
.	.	8G	the	.	.	.
.	.	[8A	ground	B	.	.
=81	=81	=81	=81	=81	=81	=81
1r	1r	4A]	_	.	137.522	.
.	.	4r	.	.	.	.
.	.	2r	.	.	.	.
1r;	1r	r;	.	.	.	.
*-	*-	*-	*-	*-	*-	*-
!!!BillboardChartDate: 1966/11/26
!!!BillboardPeak: 13
!!!BillboardWeeksOnChart: 9
!!!COC: Simon & Garfunkel
!!!EMD: Added *>B_verse section labels... All were missing except the first one. -Nat
!!!EMD: Removed excess measures 15 and 16, and added measure (in time) at the end. -Nat
!!!ENC: Nathaniel Condit-Schultz
!!!EST: Awating manual error checking and editing.
!!!OTL: A Hazy Shade Of Winter
!!!RDF**chordsym: original McGill chord annotation + (implied pitch class set, with bass pitch in first position)
!!!RDF**harmony: **recip + pitch class of root + harmonic quality
!!!RDF**leadinstrument: original McGill primary instrumentation annotation
!!!RDF**phrase: newline = linebreak in original McGill transcription
!!!RDF**timestamp: McGill audio timestamp in seconds
!!!RDT: 2017/01/12/
!!!SampleActualRank: 17
!!!SampleID#: 1121
!!!SampleTargetRank: 18
!!!MBID: cf40de89-8bbd-4980-a0ee-7fab8db895b6
